public/assets/img/icons/company.svg

<svg width="50" height="50" viewBox="0 0 50 50" fill="none" xmlns="http://www.w3.org/2000/svg">
<path d="M43.9394 30.9636C43.7385 30.9636 43.5458 30.8883 43.4037 30.7544C43.2616 30.6204 43.1818 30.4388 43.1818 30.2493V28.1779C43.1818 27.9885 43.2616 27.8068 43.4037 27.6728C43.5458 27.5389 43.7385 27.4636 43.9394 27.4636C44.1403 27.4636 44.333 27.5389 44.4751 27.6728C44.6172 27.8068 44.697 27.9885 44.697 28.1779V30.2493C44.697 30.4388 44.6172 30.6204 44.4751 30.7544C44.333 30.8883 44.1403 30.9636 43.9394 30.9636Z" fill="#1363AB"/>
<path d="M43.9391 49.9996H6.06031C5.85939 49.9996 5.6667 49.9244 5.52462 49.7904C5.38255 49.6565 5.30273 49.4748 5.30273 49.2853V2.14284C5.30273 1.57452 5.54218 1.02948 5.9684 0.627624C6.39462 0.225763 6.9727 0 7.57546 0H42.4239C43.0267 0 43.6048 0.225763 44.031 0.627624C44.4572 1.02948 44.6967 1.57452 44.6967 2.14284V16.057C44.6967 16.2465 44.6169 16.4281 44.4748 16.5621C44.3327 16.696 44.14 16.7713 43.9391 16.7713C43.7382 16.7713 43.5455 16.696 43.4034 16.5621C43.2613 16.4281 43.1815 16.2465 43.1815 16.057V2.14284C43.1815 1.9534 43.1017 1.77172 42.9596 1.63777C42.8176 1.50382 42.6249 1.42856 42.4239 1.42856H7.57546C7.37454 1.42856 7.18185 1.50382 7.03977 1.63777C6.8977 1.77172 6.81789 1.9534 6.81789 2.14284V48.5711H43.1815V35.2497C43.1815 35.0603 43.2613 34.8786 43.4034 34.7447C43.5455 34.6107 43.7382 34.5354 43.9391 34.5354C44.14 34.5354 44.3327 34.6107 44.4748 34.7447C44.6169 34.8786 44.6967 35.0603 44.6967 35.2497V49.2853C44.6967 49.4748 44.6169 49.6565 44.4748 49.7904C44.3327 49.9244 44.14 49.9996 43.9391 49.9996Z" fill="#1363AB"/>
<path d="M43.9394 23.8927C43.7385 23.8927 43.5458 23.8174 43.4037 23.6835C43.2616 23.5495 43.1818 23.3678 43.1818 23.1784V21.057C43.1818 20.8676 43.2616 20.6859 43.4037 20.5519C43.5458 20.418 43.7385 20.3427 43.9394 20.3427C44.1403 20.3427 44.333 20.418 44.4751 20.5519C44.6172 20.6859 44.697 20.8676 44.697 21.057V23.1784C44.697 23.3678 44.6172 23.5495 44.4751 23.6835C44.333 23.8174 44.1403 23.8927 43.9394 23.8927Z" fill="#1363AB"/>
<path d="M49.2424 49.9997H0.757576C0.556654 49.9997 0.363962 49.9244 0.221889 49.7905C0.0798159 49.6565 0 49.4748 0 49.2854C0 49.0959 0.0798159 48.9143 0.221889 48.7803C0.363962 48.6464 0.556654 48.5711 0.757576 48.5711H49.2424C49.4433 48.5711 49.636 48.6464 49.7781 48.7803C49.9202 48.9143 50 49.0959 50 49.2854C50 49.4748 49.9202 49.6565 49.7781 49.7905C49.636 49.9244 49.4433 49.9997 49.2424 49.9997Z" fill="#1363AB"/>
<path d="M37.7575 11.7259H33.6545C33.2527 11.7259 32.8673 11.5754 32.5831 11.3075C32.299 11.0396 32.1393 10.6763 32.1393 10.2974V6.42813C32.1393 6.04926 32.299 5.6859 32.5831 5.41799C32.8673 5.15008 33.2527 4.99957 33.6545 4.99957H37.7575C38.1594 4.99957 38.5448 5.15008 38.8289 5.41799C39.113 5.6859 39.2727 6.04926 39.2727 6.42813V10.2974C39.2727 10.6763 39.113 11.0396 38.8289 11.3075C38.5448 11.5754 38.1594 11.7259 37.7575 11.7259ZM33.6545 6.42813V10.2974H37.7575V6.42813H33.6545Z" fill="#1363AB"/>
<path d="M27.0513 11.7259H22.9483C22.5464 11.7259 22.161 11.5754 21.8769 11.3075C21.5927 11.0396 21.4331 10.6763 21.4331 10.2974V6.42813C21.4331 6.04926 21.5927 5.6859 21.8769 5.41799C22.161 5.15008 22.5464 4.99957 22.9483 4.99957H27.0513C27.4531 4.99957 27.8385 5.15008 28.1227 5.41799C28.4068 5.6859 28.5664 6.04926 28.5664 6.42813V10.2974C28.5664 10.6763 28.4068 11.0396 28.1227 11.3075C27.8385 11.5754 27.4531 11.7259 27.0513 11.7259ZM22.9483 6.42813V10.2974H27.0513V6.42813H22.9483Z" fill="#1363AB"/>
<path d="M16.3457 11.7259H12.2427C11.8408 11.7259 11.4555 11.5754 11.1713 11.3075C10.8872 11.0396 10.7275 10.6763 10.7275 10.2974V6.42813C10.7275 6.04926 10.8872 5.6859 11.1713 5.41799C11.4555 5.15008 11.8408 4.99957 12.2427 4.99957H16.3457C16.7476 4.99957 17.1329 5.15008 17.4171 5.41799C17.7012 5.6859 17.8609 6.04926 17.8609 6.42813V10.2974C17.8609 10.6763 17.7012 11.0396 17.4171 11.3075C17.1329 11.5754 16.7476 11.7259 16.3457 11.7259ZM12.2427 6.42813V10.2974H16.3457V6.42813H12.2427Z" fill="#1363AB"/>
<path d="M37.7575 21.6216H33.6545C33.2527 21.6216 32.8673 21.4711 32.5831 21.2032C32.299 20.9353 32.1393 20.572 32.1393 20.1931V16.3238C32.1393 15.9449 32.299 15.5816 32.5831 15.3137C32.8673 15.0458 33.2527 14.8953 33.6545 14.8953H37.7575C38.1594 14.8953 38.5448 15.0458 38.8289 15.3137C39.113 15.5816 39.2727 15.9449 39.2727 16.3238V20.1931C39.2727 20.572 39.113 20.9353 38.8289 21.2032C38.5448 21.4711 38.1594 21.6216 37.7575 21.6216ZM33.6545 16.3238V20.1931H37.7575V16.3238H33.6545Z" fill="#1363AB"/>
<path d="M27.0513 21.6216H22.9483C22.5464 21.6216 22.161 21.4711 21.8769 21.2032C21.5927 20.9353 21.4331 20.572 21.4331 20.1931V16.3238C21.4331 15.9449 21.5927 15.5816 21.8769 15.3137C22.161 15.0458 22.5464 14.8953 22.9483 14.8953H27.0513C27.4531 14.8953 27.8385 15.0458 28.1227 15.3137C28.4068 15.5816 28.5664 15.9449 28.5664 16.3238V20.1931C28.5664 20.572 28.4068 20.9353 28.1227 21.2032C27.8385 21.4711 27.4531 21.6216 27.0513 21.6216ZM22.9483 16.3238V20.1931H27.0513V16.3238H22.9483Z" fill="#1363AB"/>
<path d="M16.3457 21.6216H12.2427C11.8408 21.6216 11.4555 21.4711 11.1713 21.2032C10.8872 20.9353 10.7275 20.572 10.7275 20.1931V16.3238C10.7275 15.9449 10.8872 15.5816 11.1713 15.3137C11.4555 15.0458 11.8408 14.8953 12.2427 14.8953H16.3457C16.7476 14.8953 17.1329 15.0458 17.4171 15.3137C17.7012 15.5816 17.8609 15.9449 17.8609 16.3238V20.1931C17.8609 20.572 17.7012 20.9353 17.4171 21.2032C17.1329 21.4711 16.7476 21.6216 16.3457 21.6216ZM12.2427 16.3238V20.1931H16.3457V16.3238H12.2427Z" fill="#1363AB"/>
<path d="M37.7575 30.7143H33.6545C33.2527 30.7143 32.8673 30.5638 32.5831 30.2959C32.299 30.028 32.1393 29.6646 32.1393 29.2857V25.4165C32.1393 25.0376 32.299 24.6742 32.5831 24.4063C32.8673 24.1384 33.2527 23.9879 33.6545 23.9879H37.7575C38.1594 23.9879 38.5448 24.1384 38.8289 24.4063C39.113 24.6742 39.2727 25.0376 39.2727 25.4165V29.2857C39.2727 29.6646 39.113 30.028 38.8289 30.2959C38.5448 30.5638 38.1594 30.7143 37.7575 30.7143ZM33.6545 25.4165V29.2857H37.7575V25.4165H33.6545Z" fill="#1363AB"/>
<path d="M27.0513 30.7143H22.9483C22.5464 30.7143 22.161 30.5638 21.8769 30.2959C21.5927 30.028 21.4331 29.6646 21.4331 29.2857V25.4165C21.4331 25.0376 21.5927 24.6742 21.8769 24.4063C22.161 24.1384 22.5464 23.9879 22.9483 23.9879H27.0513C27.4531 23.9879 27.8385 24.1384 28.1227 24.4063C28.4068 24.6742 28.5664 25.0376 28.5664 25.4165V29.2857C28.5664 29.6646 28.4068 30.028 28.1227 30.2959C27.8385 30.5638 27.4531 30.7143 27.0513 30.7143ZM22.9483 25.4165V29.2857H27.0513V25.4165H22.9483Z" fill="#1363AB"/>
<path d="M16.3457 30.7143H12.2427C11.8408 30.7143 11.4555 30.5638 11.1713 30.2959C10.8872 30.028 10.7275 29.6646 10.7275 29.2857V25.4165C10.7275 25.0376 10.8872 24.6742 11.1713 24.4063C11.4555 24.1384 11.8408 23.9879 12.2427 23.9879H16.3457C16.7476 23.9879 17.1329 24.1384 17.4171 24.4063C17.7012 24.6742 17.8609 25.0376 17.8609 25.4165V29.2857C17.8609 29.6646 17.7012 30.028 17.4171 30.2959C17.1329 30.5638 16.7476 30.7143 16.3457 30.7143ZM12.2427 25.4165V29.2857H16.3457V25.4165H12.2427Z" fill="#1363AB"/>
<path d="M30.5163 49.9999H19.4845C19.2836 49.9999 19.0909 49.9246 18.9488 49.7907C18.8067 49.6567 18.7269 49.475 18.7269 49.2856V35.6807C18.7273 35.3345 18.8734 35.0026 19.133 34.7578C19.3926 34.5131 19.7446 34.3754 20.1118 34.375H29.889C30.2562 34.3754 30.6082 34.5131 30.8678 34.7578C31.1275 35.0026 31.2735 35.3345 31.2739 35.6807V49.2856C31.2739 49.475 31.1941 49.6567 31.052 49.7907C30.9099 49.9246 30.7172 49.9999 30.5163 49.9999ZM20.2421 48.5713H29.7587V35.8036H20.2421V48.5713Z" fill="#1363AB"/>
</svg>

<svg width="50" height="50" fill="none" xmlns="http://www.w3.org/2000/svg"><path d="M43.94 30.964a.782.782 0 0 1-.536-.21.694.694 0 0 1-.222-.505v-2.071c0-.19.08-.371.222-.505a.782.782 0 0 1 .535-.21c.201 0 .394.076.536.21a.694.694 0 0 1 .222.505v2.071c0 .19-.08.371-.222.505a.782.782 0 0 1-.536.21z" fill="#1363AB"/><path d="M43.94 50H6.06a.781.781 0 0 1-.535-.21.694.694 0 0 1-.222-.505V2.143c0-.568.24-1.114.665-1.515A2.345 2.345 0 0 1 7.575 0h34.849c.603 0 1.18.226 1.607.628.426.401.666.947.666 1.515v13.914c0 .19-.08.371-.222.505a.782.782 0 0 1-.536.21.782.782 0 0 1-.536-.21.694.694 0 0 1-.221-.505V2.143c0-.19-.08-.371-.222-.505a.781.781 0 0 0-.536-.21H7.575c-.2 0-.393.076-.535.21a.694.694 0 0 0-.222.505V48.57h36.364V35.25c0-.19.08-.371.221-.505a.781.781 0 0 1 .536-.21c.201 0 .394.076.536.21a.694.694 0 0 1 .222.505v14.035c0 .19-.08.372-.222.505a.781.781 0 0 1-.536.21z" fill="#1363AB"/><path d="M43.94 23.893a.782.782 0 0 1-.536-.21.694.694 0 0 1-.222-.505v-2.121c0-.19.08-.371.222-.505a.782.782 0 0 1 .535-.21c.201 0 .394.076.536.21a.694.694 0 0 1 .222.505v2.121c0 .19-.08.371-.222.505a.782.782 0 0 1-.536.21zM49.242 50H.758a.782.782 0 0 1-.536-.21.694.694 0 0 1-.222-.505c0-.19.08-.37.222-.505a.782.782 0 0 1 .536-.209h48.484c.201 0 .394.075.536.21a.694.694 0 0 1 .222.504c0 .19-.08.372-.222.506a.782.782 0 0 1-.536.209zM37.758 11.726h-4.104c-.401 0-.787-.15-1.07-.419a1.388 1.388 0 0 1-.445-1.01V6.428c0-.379.16-.742.444-1.01.284-.268.67-.418 1.072-.418h4.102c.402 0 .788.15 1.072.418.284.268.444.631.444 1.01v3.87c0 .378-.16.742-.444 1.01-.284.267-.67.418-1.072.418zm-4.104-5.298v3.87h4.103v-3.87h-4.102zM27.051 11.726h-4.103c-.402 0-.787-.15-1.071-.419a1.388 1.388 0 0 1-.444-1.01V6.428c0-.379.16-.742.444-1.01.284-.268.67-.418 1.071-.418h4.103c.402 0 .788.15 1.072.418.284.268.443.631.443 1.01v3.87c0 .378-.16.742-.443 1.01-.285.267-.67.418-1.072.418zm-4.103-5.298v3.87h4.103v-3.87h-4.103zM16.346 11.726h-4.103c-.402 0-.787-.15-1.072-.419a1.388 1.388 0 0 1-.444-1.01V6.428c0-.379.16-.742.444-1.01.285-.268.67-.418 1.072-.418h4.103c.402 0 .787.15 1.071.418.284.268.444.631.444 1.01v3.87c0 .378-.16.742-.444 1.01-.284.267-.67.418-1.071.418zm-4.103-5.298v3.87h4.103v-3.87h-4.103zM37.758 21.622h-4.104c-.401 0-.787-.15-1.07-.419a1.388 1.388 0 0 1-.445-1.01v-3.87c0-.378.16-.741.444-1.01.284-.267.67-.418 1.072-.418h4.102c.402 0 .788.15 1.072.419.284.268.444.63.444 1.01v3.87c0 .378-.16.741-.444 1.01-.284.267-.67.418-1.072.418zm-4.104-5.298v3.87h4.103v-3.87h-4.102zM27.051 21.622h-4.103c-.402 0-.787-.15-1.071-.419a1.388 1.388 0 0 1-.444-1.01v-3.87c0-.378.16-.741.444-1.01.284-.267.67-.418 1.071-.418h4.103c.402 0 .788.15 1.072.419.284.268.443.63.443 1.01v3.87c0 .378-.16.741-.443 1.01-.285.267-.67.418-1.072.418zm-4.103-5.298v3.87h4.103v-3.87h-4.103zM16.346 21.622h-4.103c-.402 0-.787-.15-1.072-.419a1.388 1.388 0 0 1-.444-1.01v-3.87c0-.378.16-.741.444-1.01.285-.267.67-.418 1.072-.418h4.103c.402 0 .787.15 1.071.419.284.268.444.63.444 1.01v3.87c0 .378-.16.741-.444 1.01-.284.267-.67.418-1.071.418zm-4.103-5.298v3.87h4.103v-3.87h-4.103zM37.758 30.714h-4.104c-.401 0-.787-.15-1.07-.418a1.389 1.389 0 0 1-.445-1.01v-3.87c0-.378.16-.742.444-1.01.284-.268.67-.418 1.072-.418h4.102c.402 0 .788.15 1.072.418.284.268.444.632.444 1.01v3.87c0 .379-.16.742-.444 1.01-.284.268-.67.418-1.072.418zm-4.104-5.297v3.869h4.103v-3.87h-4.102zM27.051 30.714h-4.103c-.402 0-.787-.15-1.071-.418a1.388 1.388 0 0 1-.444-1.01v-3.87c0-.378.16-.742.444-1.01.284-.268.67-.418 1.071-.418h4.103c.402 0 .788.15 1.072.418.284.268.443.632.443 1.01v3.87c0 .379-.16.742-.443 1.01-.285.268-.67.418-1.072.418zm-4.103-5.297v3.869h4.103v-3.87h-4.103zM16.346 30.714h-4.103c-.402 0-.787-.15-1.072-.418a1.389 1.389 0 0 1-.444-1.01v-3.87c0-.378.16-.742.444-1.01.285-.268.67-.418 1.072-.418h4.103c.402 0 .787.15 1.071.418.284.268.444.632.444 1.01v3.87c0 .379-.16.742-.444 1.01-.284.268-.67.418-1.071.418zm-4.103-5.297v3.869h4.103v-3.87h-4.103z" fill="#1363AB"/><path d="M30.516 50H19.485a.782.782 0 0 1-.536-.21.694.694 0 0 1-.222-.504V35.68c0-.346.146-.678.406-.923a1.43 1.43 0 0 1 .979-.383h9.777c.367 0 .72.138.979.383.26.245.405.576.406.923v13.605c0 .189-.08.37-.222.505a.782.782 0 0 1-.536.209zM20.242 48.57h9.517V35.804h-9.517V48.57z" fill="#1363AB"/></svg>
